img/icon-2.svg

<svg fill="none" height="61" viewBox="0 0 60 61" width="60" xmlns="http://www.w3.org/2000/svg"><g clip-rule="evenodd" fill="#000" fill-rule="evenodd"><path d="m32.6471 58.7649c.9706.353 1.9412.6177 3 .6177.3529 0 .6176 0 .9706-.0882 1.4117-.2648 2.4706-1.2353 3.5294-2.2059.132-.1155.2609-.231.3878-.3448.5521-.4946 1.0677-.9565 1.6416-1.2435.5647-.2823 1.2423-.3953 1.9877-.5195.1864-.0311.377-.0628.5711-.0981 1.4118-.1765 2.8235-.4412 3.8824-1.3235 1.0588-.8824 1.5882-2.2059 2.1176-3.5295.353-.8823.7059-1.6764 1.1471-2.2941.5294-.6176 1.2353-1.147 2.0294-1.6764 1.147-.7942 2.2941-1.5883 2.9118-2.9118.6176-1.2353.5294-2.6471.4411-4.0588 0-.2485-.0058-.4911-.0114-.728-.0164-.6885-.0316-1.3282.0997-1.9191.1764-.7059.6176-1.5 1.0588-2.2941.7059-1.2353 1.4118-2.4706 1.4118-3.9706s-.7059-2.7353-1.4118-3.9706c-.4412-.7941-.8824-1.5882-1.0588-2.2941-.1765-.7941-.1765-1.6765-.0883-2.6471.0883-1.4117.1765-2.8235-.4411-4.0588-.6177-1.3235-1.7648-2.1176-2.9118-2.9117-.7941-.5295-1.5882-1.0589-2.0294-1.6765-.4412-.6177-.7941-1.4118-1.1471-2.2941-.4412-1.32356-.9706-2.64709-2.1176-3.52945-1.1471-.88235-2.5589-1.14705-3.8824-1.32352-.1941-.0353-.3847-.06706-.571-.09812-.7455-.12424-1.4231-.23718-1.9878-.51953-.5739-.28695-1.0895-.74888-1.6416-1.24352-.1269-.11375-.2558-.22923-.3878-.34472-.0932-.07765-.1864-.15599-.2798-.23453-.9681-.81387-1.9621-1.64947-3.2496-1.97135-.2647-.088235-.6177-.088235-.9706-.088235-.8137 0-1.6894.248045-2.5231.484215-.1608.04554-.32.09064-.4769.13343-.8824.26471-1.7647.52941-2.5588.52941-.7942 0-1.6765-.2647-2.5589-.52941-.9706-.35294-1.9411-.617645-3-.617645-.3529 0-.6176 0-.9706.088235-1.4117.26471-2.4705 1.23529-3.5294 2.20588-.1319.11549-.2608.23097-.3878.34472-.5521.49464-1.0677.95657-1.6416 1.24352-.5647.28235-1.2423.39529-1.9877.51953-.1864.03106-.377.06282-.5711.09812-1.4118.17647-2.8235.44117-3.8824 1.32352-1.0588.88236-1.58818 2.20588-2.1176 3.52945-.35294.8823-.70588 1.6764-1.14706 2.2941-.52941.6176-1.23529 1.147-2.02941 1.6765-1.14706.7941-2.29412 1.5882-2.91176 2.9117-.61765 1.2353-.52942 2.6471-.44118 4.0588 0 .2485.00578.4911.01142.728.01641.6885.03165 1.3282-.09966 1.9191-.17647.7059-.61764 1.5-1.05882 2.2941-.70588 1.2353-1.411764 2.4706-1.411764 3.9706s.705884 2.7353 1.411764 3.9706c.44118.7941.88235 1.5882 1.05882 2.2941.17648.7941.17648 1.6765.08824 2.6471-.08824 1.4117-.17647 2.8235.44118 4.0588.61764 1.3235 1.7647 2.1176 2.91176 2.9118.79412.5294 1.58824 1.0588 2.02941 1.6764.44118.6177.79412 1.4118 1.14706 2.2941.44118 1.3236.9706 2.6471 2.1176 3.5295 1.1471.8823 2.5589 1.147 3.8824 1.3235.1941.0353.3847.067.5711.0981.7454.1242 1.423.2372 1.9877.5195.5739.287 1.0895.7489 1.6416 1.2435.127.1138.2559.2293.3878.3448.0932.0776.1864.156.2798.2345.9682.8139 1.9621 1.6495 3.2496 1.9714.2648.0882.6177.0882.9706.0882.8137 0 1.6894-.2481 2.5231-.4842.1608-.0456.32-.0907.4769-.1335.8824-.2647 1.7647-.5294 2.5589-.5294.7941 0 1.6764.2647 2.5588.5294zm.0138-.6867c-.8603-.2287-1.7316-.4603-2.6609-.4603-.9823 0-1.9.2589-2.7529.4995-.143.0403-.2842.0801-.4235.1181-1.2353.353-2.3824.6177-3.2648.4412-.8681-.2604-1.8216-1.1188-2.6925-1.9027l-.0427-.0385-.0644-.0572c-.7773-.6912-1.6359-1.4547-2.4945-1.8839-.9706-.4412-2.0294-.6177-3.1764-.7942h-.0001c-1.2353-.1764-2.4705-.3529-3.1764-.9706-.7941-.5294-1.2353-1.5882-1.6765-2.8235-.35292-.9706-.88233-2.0294-1.49998-2.8235-.55146-.7878-1.38427-1.3646-2.18442-1.9188-.09604-.0665-.19161-.1327-.28617-.1989-1.05882-.7058-2.02941-1.4117-2.47059-2.2941-.42669-.9387-.35816-1.96-.27337-3.2235.00288-.0428.00577-.086.00867-.1294l.0049-.0637c.08648-1.1227.16666-2.1635-.09314-3.2893-.16478-.9887-.71424-1.9004-1.21734-2.7353-.03568-.0592-.07113-.118-.10619-.1764-.70588-1.0588-1.235292-2.0294-1.235292-3.1765 0-.9243.470712-1.7814 1.001212-2.7474.07718-.1405.15563-.2834.23408-.4291.61765-.8823 1.05883-1.9411 1.32353-2.9117.2598-1.1258.17962-2.1666.09314-3.2892l-.0049-.0638c-.00199-.0298-.00398-.0595-.00596-.0892-.08599-1.2859-.16057-2.4012.27066-3.2637.40023-.8005 1.30875-1.4557 2.19859-2.0974.09105-.0657.18191-.1312.272-.1967.88235-.6177 1.85294-1.3236 2.47059-2.1177.70588-.7941 1.14706-1.8529 1.49998-2.8235.4412-1.05883.9706-2.20589 1.6765-2.82353.7941-.61765 1.9412-.79412 3.1765-.97059.0502-.00838.1007-.01675.1513-.02515 1.016-.16867 2.1006-.34873 3.0251-.76897.8281-.3764 1.5277-1.0097 2.2085-1.62593.1172-.10605.2338-.2116.3504-.31525.8823-.97058 1.7647-1.7647 2.7352-1.94117.8824-.17647 2.0295.08823 3.2648.44117.201.05027.4021.10372.6038.15734.8603.22869 1.7316.46031 2.6609.46031 1.0319 0 2.0638-.28563 2.9672-.5357.1008-.02791.2-.05537.2975-.08195 1.2353-.35294 2.3823-.61764 3.2647-.44117.8681.26044 1.8217 1.11881 2.6926 1.90275l.0427.03842c.1166.10365.2332.2092.3503.31526.6808.61622 1.3804 1.24952 2.2085 1.62592.9706.44118 2.0294.61765 3.1765.79412 1.2353.17647 2.4705.35294 3.1764.97059.7941.52941 1.2353 1.58823 1.6765 2.82353.3529.9706.8824 2.0294 1.5 2.8235.5515.7878 1.3843 1.3646 2.1844 1.9188.0961.0665.1916.1327.2862.1989.0425.0283.0849.0565.1271.0846 1.0088.6714 1.92 1.2779 2.3435 2.2095.4267.9387.3581 1.96.2734 3.2234-.0029.0429-.0058.0861-.0087.1295l-.0049.0638c-.0865 1.1226-.1667 2.1634.0931 3.2892.1648.9887.7143 1.9004 1.2173 2.7353.0357.0592.0712.118.1062.1764.7059 1.0589 1.2353 2.0294 1.2353 3.1765 0 .9243-.4707 1.7814-1.0012 2.7474-.0772.1405-.1556.2834-.2341.4291-.6176.8823-1.0588 1.9412-1.3235 2.9117-.2598 1.1258-.1796 2.1666-.0931 3.2892l.0049.0638.0059.0892c.086 1.2859.1606 2.4013-.2706 3.2637-.4002.8005-1.3088 1.4557-2.1986 2.0974-.0911.0657-.1819.1312-.272.1967-.8824.6177-1.7647 1.3236-2.4706 2.1177s-1.1471 1.8529-1.5 2.8235c-.4412 1.0588-.9706 2.2059-1.6765 2.8235-.8823.6177-2.0294.7942-3.2647.9706-.0502.0084-.1007.0168-.1513.0252-1.016.1687-2.1006.3487-3.0251.769-.8281.3764-1.5277 1.0097-2.2085 1.6259-.1172.106-.2338.2116-.3504.3152-.8823.9706-1.7647 1.7647-2.7353 1.9412-.8823.1765-2.0294-.0882-3.2647-.4412-.201-.0502-.4021-.1037-.6038-.1573z"/><path d="m6.44116 30.2649c0 12.9706 10.58824 23.5588 23.55884 23.5588s23.5588-10.5882 23.5588-23.5588c0-13.0588-10.5882-23.64704-23.5588-23.64704s-23.55884 10.58824-23.55884 23.64704zm.97059-.0882c0-12.5294 10.14705-22.67649 22.58825-22.67649s22.5882 10.14709 22.5882 22.67649-10.147 22.6765-22.5882 22.6765-22.58825-10.1471-22.58825-22.6765z"/><path d="m29.0294 38.2061-6.3529-7.0588c-.2647-.2647-.1765-.7059.0882-.9706s.7059-.1765.9706.0882l5.2059 5.8236 7.6765-11.9118c.1764-.3529.6176-.4412.9706-.1765.3529.2647.4411.6177.1764.9706z"/></g></svg>

<svg width="60" height="61" viewBox="0 0 60 61" fill="none" xmlns="http://www.w3.org/2000/svg">
<path fill-rule="evenodd" clip-rule="evenodd" d="M32.6471 58.7649C33.6177 59.1179 34.5883 59.3826 35.6471 59.3826C36 59.3826 36.2647 59.3826 36.6177 59.2944C38.0294 59.0296 39.0883 58.0591 40.1471 57.0885C40.2791 56.973 40.408 56.8575 40.5349 56.7437C41.087 56.2491 41.6026 55.7872 42.1765 55.5002C42.7412 55.2179 43.4188 55.1049 44.1642 54.9807C44.3506 54.9496 44.5412 54.9179 44.7353 54.8826C46.1471 54.7061 47.5588 54.4414 48.6177 53.5591C49.6765 52.6767 50.2059 51.3532 50.7353 50.0296C51.0883 49.1473 51.4412 48.3532 51.8824 47.7355C52.4118 47.1179 53.1177 46.5885 53.9118 46.0591C55.0588 45.2649 56.2059 44.4708 56.8236 43.1473C57.4412 41.912 57.353 40.5002 57.2647 39.0885C57.2647 38.84 57.2589 38.5974 57.2533 38.3605C57.2369 37.672 57.2217 37.0323 57.353 36.4414C57.5294 35.7355 57.9706 34.9414 58.4118 34.1473C59.1177 32.912 59.8236 31.6767 59.8236 30.1767C59.8236 28.6767 59.1177 27.4414 58.4118 26.2061C57.9706 25.412 57.5294 24.6179 57.353 23.912C57.1765 23.1179 57.1765 22.2355 57.2647 21.2649C57.353 19.8532 57.4412 18.4414 56.8236 17.2061C56.2059 15.8826 55.0588 15.0885 53.9118 14.2944C53.1177 13.7649 52.3236 13.2355 51.8824 12.6179C51.4412 12.0002 51.0883 11.2061 50.7353 10.3238C50.2941 9.00024 49.7647 7.67671 48.6177 6.79435C47.4706 5.912 46.0588 5.6473 44.7353 5.47083C44.5412 5.43553 44.3506 5.40377 44.1643 5.37271C43.4188 5.24847 42.7412 5.13553 42.1765 4.85318C41.6026 4.56623 41.087 4.1043 40.5349 3.60966C40.408 3.49591 40.2791 3.38043 40.1471 3.26494C40.0539 3.18729 39.9607 3.10895 39.8673 3.03041C38.8992 2.21654 37.9052 1.38094 36.6177 1.05906C36.353 0.970825 36 0.970825 35.6471 0.970825C34.8334 0.970825 33.9577 1.21887 33.124 1.45504C32.9632 1.50058 32.804 1.54568 32.6471 1.58847C31.7647 1.85318 30.8824 2.11788 30.0883 2.11788C29.2941 2.11788 28.4118 1.85318 27.5294 1.58847C26.5588 1.23553 25.5883 0.970825 24.5294 0.970825C24.1765 0.970825 23.9118 0.970825 23.5588 1.05906C22.1471 1.32377 21.0883 2.29435 20.0294 3.26494C19.8975 3.38043 19.7686 3.49591 19.6416 3.60966C19.0895 4.1043 18.5739 4.56623 18 4.85318C17.4353 5.13553 16.7577 5.24847 16.0123 5.37271C15.8259 5.40377 15.6353 5.43553 15.4412 5.47083C14.0294 5.6473 12.6177 5.912 11.5588 6.79435C10.5 7.67671 9.97062 9.00023 9.4412 10.3238L9.4412 10.3238C9.08826 11.2061 8.73532 12.0002 8.29414 12.6179C7.76473 13.2355 7.05885 13.7649 6.26473 14.2944C5.11767 15.0885 3.97061 15.8826 3.35297 17.2061C2.73532 18.4414 2.82355 19.8532 2.91179 21.2649C2.91179 21.5134 2.91757 21.756 2.92321 21.9929C2.93962 22.6814 2.95486 23.3211 2.82355 23.912C2.64708 24.6179 2.20591 25.412 1.76473 26.2061C1.05885 27.4414 0.352966 28.6767 0.352966 30.1767C0.352966 31.6767 1.05885 32.912 1.76473 34.1473C2.20591 34.9414 2.64708 35.7355 2.82355 36.4414C3.00003 37.2355 3.00003 38.1179 2.91179 39.0885C2.82355 40.5002 2.73532 41.912 3.35297 43.1473C3.97061 44.4708 5.11767 45.2649 6.26473 46.0591C7.05885 46.5885 7.85297 47.1179 8.29414 47.7355C8.73532 48.3532 9.08826 49.1473 9.4412 50.0296C9.88238 51.3532 10.4118 52.6767 11.5588 53.5591C12.7059 54.4414 14.1177 54.7061 15.4412 54.8826C15.6353 54.9179 15.8259 54.9496 16.0123 54.9807C16.7577 55.1049 17.4353 55.2179 18 55.5002C18.5739 55.7872 19.0895 56.2491 19.6416 56.7437C19.7686 56.8575 19.8975 56.973 20.0294 57.0885C20.1226 57.1661 20.2158 57.2445 20.3092 57.323C21.2774 58.1369 22.2713 58.9725 23.5588 59.2944C23.8236 59.3826 24.1765 59.3826 24.5294 59.3826C25.3431 59.3826 26.2188 59.1345 27.0525 58.8984C27.2133 58.8528 27.3725 58.8077 27.5294 58.7649C28.4118 58.5002 29.2941 58.2355 30.0883 58.2355C30.8824 58.2355 31.7647 58.5002 32.6471 58.7649ZM32.6609 58.0782C31.8006 57.8495 30.9293 57.6179 30 57.6179C29.0177 57.6179 28.1 57.8768 27.2471 58.1174C27.1041 58.1577 26.9629 58.1975 26.8236 58.2355C25.5883 58.5885 24.4412 58.8532 23.5588 58.6767C22.6907 58.4163 21.7372 57.5579 20.8663 56.774L20.8236 56.7355L20.7592 56.6783C19.9819 55.9871 19.1233 55.2236 18.2647 54.7944C17.2941 54.3532 16.2353 54.1767 15.0883 54.0002H15.0882C13.8529 53.8238 12.6177 53.6473 11.9118 53.0296C11.1177 52.5002 10.6765 51.4414 10.2353 50.2061C9.88238 49.2355 9.35297 48.1767 8.73532 47.3826C8.18386 46.5948 7.35105 46.018 6.5509 45.4638C6.45486 45.3973 6.35929 45.3311 6.26473 45.2649C5.20591 44.5591 4.23532 43.8532 3.79414 42.9708C3.36745 42.0321 3.43598 41.0108 3.52077 39.7473C3.52365 39.7045 3.52654 39.6613 3.52944 39.6179L3.53434 39.5542C3.62082 38.4315 3.701 37.3907 3.4412 36.2649C3.27642 35.2762 2.72696 34.3645 2.22386 33.5296C2.18818 33.4704 2.15273 33.4116 2.11767 33.3532C1.41179 32.2944 0.882378 31.3238 0.882378 30.1767C0.882378 29.2524 1.35309 28.3953 1.88359 27.4293C1.96077 27.2888 2.03922 27.1459 2.11767 27.0002C2.73532 26.1179 3.1765 25.0591 3.4412 24.0885C3.701 22.9627 3.62082 21.9219 3.53434 20.7993L3.52944 20.7355C3.52745 20.7057 3.52546 20.676 3.52348 20.6463C3.43749 19.3604 3.36291 18.2451 3.79414 17.3826C4.19437 16.5821 5.10289 15.9269 5.99273 15.2852C6.08378 15.2195 6.17464 15.154 6.26473 15.0885C7.14708 14.4708 8.11767 13.7649 8.73532 12.9708C9.4412 12.1767 9.88238 11.1179 10.2353 10.1473C10.6765 9.08847 11.2059 7.94141 11.9118 7.32377C12.7059 6.70612 13.853 6.52965 15.0883 6.35318C15.1385 6.3448 15.189 6.33643 15.2396 6.32803C16.2556 6.15936 17.3402 5.9793 18.2647 5.55906C19.0928 5.18266 19.7924 4.54936 20.4732 3.93313C20.5904 3.82708 20.707 3.72153 20.8236 3.61788C21.7059 2.6473 22.5883 1.85318 23.5588 1.67671C24.4412 1.50024 25.5883 1.76494 26.8236 2.11788C27.0246 2.16815 27.2257 2.2216 27.4274 2.27522C28.2877 2.50391 29.159 2.73553 30.0883 2.73553C31.1202 2.73553 32.1521 2.4499 33.0555 2.19983C33.1563 2.17192 33.2555 2.14446 33.353 2.11788C34.5883 1.76494 35.7353 1.50024 36.6177 1.67671C37.4858 1.93715 38.4394 2.79552 39.3103 3.57946L39.353 3.61788C39.4696 3.72153 39.5862 3.82708 39.7033 3.93314C40.3841 4.54936 41.0837 5.18266 41.9118 5.55906C42.8824 6.00024 43.9412 6.17671 45.0883 6.35318C46.3236 6.52965 47.5588 6.70612 48.2647 7.32377C49.0588 7.85318 49.5 8.912 49.9412 10.1473C50.2941 11.1179 50.8236 12.1767 51.4412 12.9708C51.9927 13.7586 52.8255 14.3354 53.6256 14.8896C53.7217 14.9561 53.8172 15.0223 53.9118 15.0885C53.9543 15.1168 53.9967 15.145 54.0389 15.1731C55.0477 15.8445 55.9589 16.451 56.3824 17.3826C56.8091 18.3213 56.7405 19.3426 56.6558 20.606C56.6529 20.6489 56.65 20.6921 56.6471 20.7355L56.6422 20.7993C56.5557 21.9219 56.4755 22.9627 56.7353 24.0885C56.9001 25.0772 57.4496 25.9889 57.9526 26.8238C57.9883 26.883 58.0238 26.9418 58.0588 27.0002C58.7647 28.0591 59.2941 29.0296 59.2941 30.1767C59.2941 31.101 58.8234 31.9581 58.2929 32.9241C58.2157 33.0646 58.1373 33.2075 58.0588 33.3532C57.4412 34.2355 57 35.2944 56.7353 36.2649C56.4755 37.3907 56.5557 38.4315 56.6422 39.5541L56.6471 39.6179L56.653 39.7071C56.739 40.993 56.8136 42.1084 56.3824 42.9708C55.9822 43.7713 55.0736 44.4265 54.1838 45.0682C54.0927 45.1339 54.0019 45.1994 53.9118 45.2649C53.0294 45.8826 52.1471 46.5885 51.4412 47.3826C50.7353 48.1767 50.2941 49.2355 49.9412 50.2061C49.5 51.2649 48.9706 52.412 48.2647 53.0296C47.3824 53.6473 46.2353 53.8238 45 54.0002C44.9498 54.0086 44.8993 54.017 44.8487 54.0254C43.8327 54.1941 42.7481 54.3741 41.8236 54.7944C40.9955 55.1708 40.2959 55.8041 39.6151 56.4203C39.4979 56.5263 39.3813 56.6319 39.2647 56.7355C38.3824 57.7061 37.5 58.5002 36.5294 58.6767C35.6471 58.8532 34.5 58.5885 33.2647 58.2355C33.0637 58.1853 32.8626 58.1318 32.6609 58.0782Z" fill="black"/>
<path fill-rule="evenodd" clip-rule="evenodd" d="M6.44116 30.2649C6.44116 43.2355 17.0294 53.8237 30 53.8237C42.9706 53.8237 53.5588 43.2355 53.5588 30.2649C53.5588 17.2061 42.9706 6.61786 30 6.61786C17.0294 6.61786 6.44116 17.2061 6.44116 30.2649ZM7.41175 30.1767C7.41175 17.6473 17.5588 7.50021 30 7.50021C42.4412 7.50021 52.5882 17.6473 52.5882 30.1767C52.5882 42.7061 42.4412 52.8532 30 52.8532C17.5588 52.8532 7.41175 42.7061 7.41175 30.1767Z" fill="black"/>
<path fill-rule="evenodd" clip-rule="evenodd" d="M29.0294 38.2061L22.6765 31.1473C22.4118 30.8826 22.5 30.4414 22.7647 30.1767C23.0294 29.912 23.4706 30.0002 23.7353 30.2649L28.9412 36.0885L36.6177 24.1767C36.7941 23.8238 37.2353 23.7355 37.5883 24.0002C37.9412 24.2649 38.0294 24.6179 37.7647 24.9708L29.0294 38.2061Z" fill="black"/>
</svg>
